Styles/icons8-close.svg

<?xml version="1.0"?><svg xmlns="http://www.w3.org/2000/svg"  viewBox="0 0 30 30" fill="#fff">    <path d="M 7 4 C 6.744125 4 6.4879687 4.0974687 6.2929688 4.2929688 L 4.2929688 6.2929688 C 3.9019687 6.6839688 3.9019687 7.3170313 4.2929688 7.7070312 L 11.585938 15 L 4.2929688 22.292969 C 3.9019687 22.683969 3.9019687 23.317031 4.2929688 23.707031 L 6.2929688 25.707031 C 6.6839688 26.098031 7.3170313 26.098031 7.7070312 25.707031 L 15 18.414062 L 22.292969 25.707031 C 22.682969 26.098031 23.317031 26.098031 23.707031 25.707031 L 25.707031 23.707031 C 26.098031 23.316031 26.098031 22.682969 25.707031 22.292969 L 18.414062 15 L 25.707031 7.7070312 C 26.098031 7.3170312 26.098031 6.6829688 25.707031 6.2929688 L 23.707031 4.2929688 C 23.316031 3.9019687 22.682969 3.9019687 22.292969 4.2929688 L 15 11.585938 L 7.7070312 4.2929688 C 7.5115312 4.0974687 7.255875 4 7 4 z"/></svg>

<svg xmlns="http://www.w3.org/2000/svg" viewBox="0 0 30 30" fill="#fff" xmlns:v="https://vecta.io/nano"><path d="M7 4c-.256 0-.512.097-.707.293l-2 2a1 1 0 0 0 0 1.414L11.586 15l-7.293 7.293a1 1 0 0 0 0 1.414l2 2a1 1 0 0 0 1.414 0L15 18.414l7.293 7.293a1 1 0 0 0 1.414 0l2-2a1 1 0 0 0 0-1.414L18.414 15l7.293-7.293a1 1 0 0 0 0-1.414l-2-2a1 1 0 0 0-1.414 0L15 11.586 7.707 4.293C7.512 4.097 7.256 4 7 4z"/></svg>
